X:64
T: Frisch auf, ihr Landsknecht alle!
N: A0417A
O: Europa, Mitteleuropa, Deutschland
N: Dresdner Gsgb.
R: Romanze, Ballade, Lied, Kriegslied
M: 4/2
L: 1/4
K: D
z6A2A2A2 | B4A2G3AB2 | G4z2
G2 | A4A4=c2B2 | A4z2
A2A2A2 | B4A2G3AB2 | G4z2
G2 | A4A2=F3ED2 | =C4z2
C2=F2G2 | A3AG2=F3ED2 | =C4z2
C2=F2G2 | A4B2=c2A2B2 | A4z2
A2 | G2=F2G2A2 | =F4D4
A4 | =c4B2A4G2 | =F4D4
A4 | =c4B2A4=F2 | G=FEDE4 | D8

